src/styles/images/user.svg

<svg width="22" height="22" viewBox="0 0 22 22" fill="none" xmlns="http://www.w3.org/2000/svg">
<path d="M11 11.3793C9.94724 11.3793 8.91818 11.0456 8.04288 10.4204C7.16759 9.79525 6.48538 8.90664 6.08253 7.86699C5.67967 6.82734 5.57427 5.68334 5.77964 4.57966C5.98502 3.47598 6.49194 2.46218 7.23632 1.66646C7.98069 0.870751 8.92909 0.328864 9.96157 0.109328C10.994 -0.110209 12.0642 0.00246525 13.0368 0.433102C14.0094 0.863738 14.8407 1.593 15.4255 2.52865C16.0104 3.46431 16.3225 4.56435 16.3225 5.68966C16.3225 7.19865 15.7618 8.64583 14.7636 9.71285C13.7654 10.7799 12.4116 11.3793 11 11.3793ZM11 2.27586C10.3683 2.27586 9.75089 2.47608 9.22571 2.85119C8.70053 3.2263 8.29121 3.75947 8.0495 4.38326C7.80779 5.00704 7.74454 5.69344 7.86777 6.35566C7.99099 7.01787 8.29515 7.62614 8.74177 8.10357C9.1884 8.581 9.75743 8.90613 10.3769 9.03786C10.9964 9.16958 11.6385 9.10197 12.2221 8.84359C12.8056 8.58521 13.3044 8.14765 13.6553 7.58626C14.0062 7.02486 14.1935 6.36484 14.1935 5.68966C14.1935 4.78426 13.857 3.91595 13.2581 3.27574C12.6592 2.63553 11.8469 2.27586 11 2.27586Z" fill="white"/>
<path d="M20.9355 22C20.6543 21.996 20.3857 21.8749 20.1868 21.6623C19.988 21.4498 19.8746 21.1626 19.871 20.862C19.871 17.9034 18.3665 15.931 11 15.931C3.63355 15.931 2.12903 17.9034 2.12903 20.862C2.12903 21.1638 2.01688 21.4533 1.81724 21.6667C1.61761 21.8801 1.34684 22 1.06452 22C0.782189 22 0.511425 21.8801 0.311789 21.6667C0.112154 21.4533 0 21.1638 0 20.862C0 13.6552 7.7071 13.6552 11 13.6552C14.2929 13.6552 22 13.6552 22 20.862C21.9963 21.1626 21.883 21.4498 21.6841 21.6623C21.4853 21.8749 21.2167 21.996 20.9355 22Z" fill="white"/>
</svg>

<svg width="22" height="22" fill="none" xmlns="http://www.w3.org/2000/svg"><path d="M11 11.38a5.082 5.082 0 0 1-2.957-.96 5.625 5.625 0 0 1-1.96-2.553A6.055 6.055 0 0 1 5.78 4.58a5.821 5.821 0 0 1 1.456-2.914A5.226 5.226 0 0 1 9.962.11a5.004 5.004 0 0 1 3.075.324 5.416 5.416 0 0 1 2.388 2.096c.585.935.898 2.035.898 3.16 0 1.51-.561 2.957-1.56 4.024-.998 1.067-2.351 1.666-3.763 1.666Zm0-9.104c-.632 0-1.25.2-1.774.575a3.375 3.375 0 0 0-1.177 1.532 3.633 3.633 0 0 0-.181 1.973c.123.662.427 1.27.874 1.748a3.136 3.136 0 0 0 1.635.934c.62.132 1.261.064 1.845-.194a3.25 3.25 0 0 0 1.433-1.258c.351-.561.539-1.221.539-1.896 0-.906-.337-1.774-.936-2.414-.599-.64-1.411-1-2.258-1ZM20.936 22a1.046 1.046 0 0 1-.75-.338 1.193 1.193 0 0 1-.315-.8c0-2.959-1.505-4.931-8.871-4.931-7.366 0-8.871 1.972-8.871 4.931 0 .302-.112.591-.312.805-.2.213-.47.333-.752.333a1.03 1.03 0 0 1-.753-.333A1.18 1.18 0 0 1 0 20.862c0-7.207 7.707-7.207 11-7.207s11 0 11 7.207c-.004.3-.117.588-.316.8a1.045 1.045 0 0 1-.748.338Z" fill="#fff"/></svg>
